apps/explorer/src/assets/img/CoW-protocol.svg

<svg fill="none" height="75" viewBox="0 0 75 75" width="75" xmlns="http://www.w3.org/2000/svg" xmlns:xlink="http://www.w3.org/1999/xlink"><linearGradient id="a" gradientUnits="userSpaceOnUse" x1=".000002" x2="60.016" y1="37.5" y2="7.51203"><stop offset="0" stop-color="#ffe7e0"/><stop offset=".109375" stop-color="#f8dbf4"/><stop offset=".526042" stop-color="#c4ddff"/><stop offset="1" stop-color="#cae9ff"/></linearGradient><clipPath id="b"><path d="m0 0h75v75h-75z"/></clipPath><g clip-path="url(#b)"><circle cx="37.5" cy="37.5" fill="url(#a)" r="37.5"/><g clip-rule="evenodd" fill="#052b65" fill-rule="evenodd"><path d="m47.2306 20.6059c2.3536-.4321 11.1572-2.0485 11.549.7063.402 2.8213-3.226 6.7121-7.0218 8.4606-.2001.0923-.3777.2192-.5557.3464-.1478.1056-.2958.2114-.457.2976-.5974.3197-.9536 1.1179-.8659 1.8378v10.0801c-2.9931-2.0709-7.3928-3.3595-12.3793-3.3595-4.9864 0-9.386 1.2886-12.379 3.3594v-10.08c.0874-.7199-.2689-1.5181-.8664-1.8378-.1608-.0861-.3085-.1917-.4561-.2971-.1782-.1274-.3562-.2545-.5565-.3469-3.7958-1.7485-7.4234-5.6393-7.0219-8.4606.3922-2.7551 9.1977-1.1381 11.5499-.7062.1872.0344.3335.0613.4315.0778.0682.0115.1318-.0457.1182-.1123-.1355-.6665-.2333-2.4685 1.0646-2.8587.8298-.2496 1.3767.211 1.7014.6756.1454.2085.5803 1.1096.8505 1.7352.1459.3378.4853.8315.858.8225 1.5641-.4788 3.1351-.7183 4.7058-.7183 1.5709 0 3.1418.2395 4.7057.7183.3729.009.7122-.4847.8579-.8225.2703-.6256.7054-1.5267.8506-1.7352.3247-.4646.872-.9252 1.7016-.6756 1.2977.3902 1.1998 2.1922 1.0646 2.8587-.0138.0666.0497.1238.118.1123.0981-.0166.2447-.0435.4323-.0779zm-11.5998 11.16c.0432-.2552-.3737-.9023-1.6759-1.7807-.9139-.6091-1.9264-1.0769-2.9854-1.3845-.2487-.0724-.5076-.1194-.7668-.1102-.473.0173-.9262.1762-1.3235.4574-.5304.3624-.8979.846-1.0087 1.4717-.1135.625.0638 1.2034.4361 1.7226.2755.3977.6462.6995 1.0846.8748.2403.0964.5.1389.759.1549 1.102.0668 2.216-.0318 3.2866-.2968 1.5291-.3875 2.1458-.8552 2.194-1.1092zm9.9779 1.2511c.4383-.1753.8091-.4771 1.0846-.8748.3723-.5192.5496-1.0973.436-1.7223-.1106-.6257-.4782-1.1096-1.0086-1.472-.3972-.2812-.8506-.4401-1.3236-.4574-.2591-.0092-.5181.0378-.7667.1102-1.059.3076-2.0715.7754-2.9855 1.3845-1.3022.8784-1.719 1.5253-1.676 1.7805.0482.254.6649.7219 2.1941 1.1094 1.0705.265 2.1847.3636 3.2867.2968.2589-.016.5186-.0585.759-.1549z"/><path d="m22.7523 49.0048c0-4.6132 6.6026-8.3527 14.7476-8.3527 8.1449 0 14.7479 3.7396 14.7479 8.3527 0 4.613-6.6028 8.3525-14.7479 8.3525-8.145 0-14.7476-3.7394-14.7476-8.3525zm5.1049-.5199c.2254 1.3735 1.4005 1.9791 2.6625 1.3735 1.231-.5699 2.0423-1.7602 2.1115-3.0963-.0055-.7081-.3865-.4363-.8571-.1006-.6292.4489-1.4185 1.012-1.6838-.5009-.4638-2.6445-2.48.8528-2.2331 2.3243zm16.6227 1.3735c1.2617.6056 2.4368 0 2.6625-1.3735.2466-1.4715-1.7693-4.9688-2.2331-2.3243-.2655 1.513-1.0548.9498-1.684.5009-.4704-.3357-.8513-.6075-.8566.1006.0686 1.3361.8802 2.5264 2.1112 3.0963z"/></g></g></svg>

<svg width="75" height="75" viewBox="0 0 75 75" fill="none" xmlns="http://www.w3.org/2000/svg">
<g clip-path="url(#clip0_2717_4484)">
<circle cx="37.5" cy="37.5" r="37.5" fill="url(#paint0_linear_2717_4484)"/>
<path fill-rule="evenodd" clip-rule="evenodd" d="M47.2306 20.6059C49.5842 20.1738 58.3878 18.5574 58.7796 21.3122C59.1816 24.1335 55.5536 28.0243 51.7578 29.7728C51.5577 29.8651 51.3801 29.992 51.2021 30.1192C51.0543 30.2248 50.9063 30.3306 50.7451 30.4168C50.1477 30.7365 49.7915 31.5347 49.8792 32.2546V42.3347C46.8861 40.2638 42.4864 38.9752 37.4999 38.9752C32.5135 38.9752 28.1139 40.2638 25.1209 42.3346V32.2546C25.2083 31.5347 24.852 30.7365 24.2545 30.4168C24.0937 30.3307 23.946 30.2251 23.7984 30.1197C23.6202 29.9923 23.4422 29.8652 23.2419 29.7728C19.4461 28.0243 15.8185 24.1335 16.22 21.3122C16.6122 18.5571 25.4177 20.1741 27.7699 20.606C27.9571 20.6404 28.1034 20.6673 28.2014 20.6838C28.2696 20.6953 28.3332 20.6381 28.3196 20.5715C28.1841 19.905 28.0863 18.103 29.3842 17.7128C30.214 17.4632 30.7609 17.9238 31.0856 18.3884C31.231 18.5969 31.6659 19.498 31.9361 20.1236C32.082 20.4614 32.4214 20.9551 32.7941 20.9461C34.3582 20.4673 35.9292 20.2278 37.4999 20.2278C39.0708 20.2278 40.6417 20.4673 42.2056 20.9461C42.5785 20.9551 42.9178 20.4614 43.0635 20.1236C43.3338 19.498 43.7689 18.5969 43.9141 18.3884C44.2388 17.9238 44.7861 17.4632 45.6157 17.7128C46.9134 18.103 46.8155 19.905 46.6803 20.5715C46.6665 20.6381 46.73 20.6953 46.7983 20.6838C46.8964 20.6672 47.043 20.6403 47.2306 20.6059ZM35.6308 31.7659C35.674 31.5107 35.2571 30.8636 33.9549 29.9852C33.041 29.3761 32.0285 28.9083 30.9695 28.6007C30.7208 28.5283 30.4619 28.4813 30.2027 28.4905C29.7297 28.5078 29.2765 28.6667 28.8792 28.9479C28.3488 29.3103 27.9813 29.7939 27.8705 30.4196C27.757 31.0446 27.9343 31.623 28.3066 32.1422C28.5821 32.5399 28.9528 32.8417 29.3912 33.017C29.6315 33.1134 29.8912 33.1559 30.1502 33.1719C31.2522 33.2387 32.3662 33.1401 33.4368 32.8751C34.9659 32.4876 35.5826 32.0199 35.6308 31.7659ZM45.6087 33.017C46.047 32.8417 46.4178 32.5399 46.6933 32.1422C47.0656 31.623 47.2429 31.0449 47.1293 30.4199C47.0187 29.7942 46.6511 29.3103 46.1207 28.9479C45.7235 28.6667 45.2701 28.5078 44.7971 28.4905C44.538 28.4813 44.279 28.5283 44.0304 28.6007C42.9714 28.9083 41.9589 29.3761 41.0449 29.9852C39.7427 30.8636 39.3259 31.5105 39.3689 31.7657C39.4171 32.0197 40.0338 32.4876 41.563 32.8751C42.6335 33.1401 43.7477 33.2387 44.8497 33.1719C45.1086 33.1559 45.3683 33.1134 45.6087 33.017Z" fill="#052B65"/>
<path fill-rule="evenodd" clip-rule="evenodd" d="M22.7523 49.0048C22.7523 44.3916 29.3549 40.6521 37.4999 40.6521C45.6448 40.6521 52.2478 44.3917 52.2478 49.0048C52.2478 53.6178 45.645 57.3573 37.4999 57.3573C29.3549 57.3573 22.7523 53.6179 22.7523 49.0048ZM27.8572 48.4849C28.0826 49.8584 29.2577 50.464 30.5197 49.8584C31.7507 49.2885 32.562 48.0982 32.6312 46.7621C32.6257 46.054 32.2447 46.3258 31.7741 46.6615C31.1449 47.1104 30.3556 47.6735 30.0903 46.1606C29.6265 43.5161 27.6103 47.0134 27.8572 48.4849ZM44.4799 49.8584C45.7416 50.464 46.9167 49.8584 47.1424 48.4849C47.389 47.0134 45.3731 43.5161 44.9093 46.1606C44.6438 47.6736 43.8545 47.1104 43.2253 46.6615C42.7549 46.3258 42.374 46.054 42.3687 46.7621C42.4373 48.0982 43.2489 49.2885 44.4799 49.8584Z" fill="#052B65"/>
</g>
<defs>
<linearGradient id="paint0_linear_2717_4484" x1="2.23368e-06" y1="37.5" x2="60.016" y2="7.51203" gradientUnits="userSpaceOnUse">
<stop stop-color="#FFE7E0"/>
<stop offset="0.109375" stop-color="#F8DBF4"/>
<stop offset="0.526042" stop-color="#C4DDFF"/>
<stop offset="1" stop-color="#CAE9FF"/>
</linearGradient>
<clipPath id="clip0_2717_4484">
<rect width="75" height="75" fill="white"/>
</clipPath>
</defs>
</svg>
